dealnox/img/sprite/icon-disclamer.svg

<svg width="20" height="24" viewBox="0 0 20 24" fill="none" xmlns="http://www.w3.org/2000/svg">
<g clip-path="url(#clip0_666_653)">
<path d="M9.95084 24C9.2398 23.6292 8.51728 23.2744 7.81914 22.8839C5.99614 21.8677 4.3012 20.6808 2.82224 19.2131C1.8264 18.2255 0.991123 17.1258 0.462619 15.8245C0.156588 15.0796 -0.000450775 14.2839 6.22883e-05 13.4808C0.00197369 10.0633 0.00197369 6.64562 6.22883e-05 3.22781V3.03375C0.4631 3.05953 0.904153 3.10641 1.34569 3.105C3.35553 3.09937 5.31472 2.82375 7.15875 1.98656C8.13978 1.54219 9.03193 0.967031 9.79506 0.210469C9.8516 0.144366 9.90272 0.0739915 9.94797 0C12.7874 2.71594 16.2513 3.26766 19.9962 3.05062V3.27656C19.9962 6.65531 19.99 10.0341 19.9991 13.4128C20.0034 14.8725 19.5103 16.1663 18.7089 17.3681C17.7738 18.7697 16.5457 19.8947 15.2067 20.9123C13.6346 22.1077 11.932 23.0972 10.1386 23.9391C10.1063 23.957 10.0755 23.9774 10.0464 24H9.95084ZM1.533 4.61625V4.92188C1.533 7.73859 1.54639 10.5553 1.5268 13.3716C1.51915 14.4966 1.88758 15.4927 2.48633 16.4184C3.25089 17.603 4.25724 18.5747 5.36251 19.4531C6.74255 20.5486 8.23775 21.4687 9.81943 22.2595C9.95992 22.3298 10.0631 22.3148 10.1941 22.2488C11.8866 21.3956 13.4841 20.4028 14.9396 19.1953C15.8174 18.4669 16.6169 17.6709 17.2811 16.748C18.0934 15.623 18.5039 14.3995 18.481 12.998C18.4365 10.2989 18.4681 7.59891 18.4681 4.89937V4.61484C15.3773 4.545 12.4949 3.91781 9.99767 2.04469C7.50806 3.91875 4.62279 4.54688 1.533 4.61625Z" fill="#968E8E"/>
<path d="M5.85315 12.6189L9.16561 14.9229L14.529 7.18848L15.7939 8.03223L9.55698 17.0322L4.9696 13.841L5.85315 12.6189Z" fill="#968E8E"/>
</g>
<defs>
<clipPath id="clip0_666_653">
<rect width="20" height="24" fill="white"/>
</clipPath>
</defs>
</svg>

<svg width="20" height="24" fill="none" xmlns="http://www.w3.org/2000/svg"><g clip-path="url(#clip0_666_653)" fill="#968E8E"><path d="M9.95 24c-.71-.37-1.433-.726-2.13-1.116-1.824-1.016-3.519-2.203-4.998-3.67-.996-.988-1.83-2.088-2.36-3.39A6.155 6.155 0 0 1 0 13.482c.002-3.418.002-6.835 0-10.253v-.194c.463.026.904.072 1.346.071 2.01-.006 3.969-.281 5.813-1.118.98-.445 1.873-1.02 2.636-1.777A1.64 1.64 0 0 0 9.948 0c2.84 2.716 6.303 3.268 10.048 3.05v.227c0 3.378-.006 6.757.003 10.136.004 1.46-.489 2.753-1.29 3.955-.935 1.402-2.163 2.527-3.502 3.544-1.572 1.196-3.275 2.185-5.068 3.027a.717.717 0 0 0-.093.061h-.095zM1.534 4.616v.306c0 2.817.013 5.633-.006 8.45-.008 1.125.36 2.12.96 3.046.764 1.185 1.77 2.157 2.876 3.035 1.38 1.096 2.875 2.016 4.456 2.806.14.07.244.056.375-.01 1.693-.853 3.29-1.846 4.746-3.054.877-.728 1.677-1.524 2.341-2.447.812-1.125 1.223-2.349 1.2-3.75-.045-2.7-.013-5.4-.013-8.099v-.284c-3.09-.07-5.973-.697-8.47-2.57-2.49 1.874-5.375 2.502-8.465 2.571z"/><path d="M5.853 12.619l3.313 2.304 5.363-7.735 1.265.844-6.237 9-4.587-3.191.883-1.222z"/></g><defs><clipPath id="clip0_666_653"><path fill="#fff" d="M0 0h20v24H0z"/></clipPath></defs></svg>
